assets/images/hostbutton.svg

<svg fill="none" height="146" viewBox="0 0 147 146" width="147" xmlns="http://www.w3.org/2000/svg" xmlns:xlink="http://www.w3.org/1999/xlink"><radialGradient id="a" cx="73.4141" cy="72.801" gradientUnits="userSpaceOnUse" r="72.614"><stop offset="0" stop-color="#a70c0c"/><stop offset=".813" stop-color="#390c0c"/><stop offset=".833" stop-color="#d0d0d0"/><stop offset="1" stop-color="#e8e8e8"/></radialGradient><path d="m73.414.187012c14.3617 0 28.401 4.258738 40.342 12.237688 11.942 7.9789 21.249 19.3197 26.745 32.5881 5.496 13.2685 6.934 27.8688 4.132 41.9545s-9.718 27.0247-19.873 37.1797-23.094 17.071-37.1797 19.873-28.686 1.364-41.9544-4.132c-13.2685-5.496-24.6093-14.803-32.5882-26.745-7.97892-11.941-12.237651-25.9803-12.237651-40.342 0-19.2584 7.650381-37.7281 21.268151-51.3458 13.6178-13.61781 32.0874-21.268188 51.3458-21.268188z" fill="url(#a)"/></svg>

<svg width="147" height="146" viewBox="0 0 147 146" fill="none" xmlns="http://www.w3.org/2000/svg">
<path d="M73.414 0.187012C87.7757 0.187012 101.815 4.44575 113.756 12.4247C125.698 20.4036 135.005 31.7444 140.501 45.0128C145.997 58.2813 147.435 72.8816 144.633 86.9673C141.831 101.053 134.915 113.992 124.76 124.147C114.605 134.302 101.666 141.218 87.5803 144.02C73.4946 146.822 58.8943 145.384 45.6259 139.888C32.3574 134.392 21.0166 125.085 13.0377 113.143C5.05878 101.202 0.800049 87.1627 0.800049 72.801C0.800049 53.5426 8.45043 35.0729 22.0682 21.4552C35.686 7.83739 54.1556 0.187012 73.414 0.187012V0.187012Z" fill="url(#paint0_radial)"/>
<defs>
<radialGradient id="paint0_radial" cx="0" cy="0" r="1" gradientUnits="userSpaceOnUse" gradientTransform="translate(73.4141 72.801) scale(72.614)">
<stop stop-color="#A70C0C"/>
<stop offset="0.813" stop-color="#390C0C"/>
<stop offset="0.833" stop-color="#D0D0D0"/>
<stop offset="1" stop-color="#E8E8E8"/>
</radialGradient>
</defs>
</svg>
